src/assets/sprite.svg

<svg aria-hidden="true" style="position: absolute; width: 0; height: 0; overflow: hidden;" version="1.1" xmlns="http://www.w3.org/2000/svg" xmlns:xlink="http://www.w3.org/1999/xlink">
<defs>
<symbol id="currency" viewBox="0 0 32 32">
<path fill="#6e78e8" style="fill: var(--color1, #6e78e8)" d="M5.053 0c-2.791 0-5.053 2.262-5.053 5.053v21.895c0 2.79 2.262 5.053 5.053 5.053h21.895c2.79 0 5.053-2.262 5.053-5.053v-21.895c0-2.791-2.262-5.053-5.053-5.053h-21.895zM13.265 13.136c0 0.995 0.765 1.635 3.144 2.253s4.925 1.635 4.925 4.61c0 2.148-1.624 3.332-3.667 3.72v2.253h-3.143v-2.274c-2.012-0.43-3.73-1.718-3.856-4.013h2.305c0.115 1.236 0.964 2.2 3.123 2.2 2.316 0 2.829-1.153 2.829-1.876 0-0.974-0.524-1.896-3.143-2.525-2.923-0.702-4.925-1.907-4.925-4.327 0-2.022 1.635-3.342 3.667-3.783v-2.263h3.143v2.295c2.19 0.534 3.29 2.19 3.363 3.992h-2.316c-0.063-1.31-0.754-2.2-2.619-2.2-1.771 0-2.829 0.796-2.829 1.938z"></path>
</symbol>
<symbol id="email" viewBox="0 0 32 32">
<path fill="#e0e0e0" style="fill: var(--color2, #e0e0e0)" d="M28.19 3.81h-24.381c-1.676 0-3.032 1.371-3.032 3.048l-0.015 18.286c0 1.676 1.371 3.048 3.048 3.048h24.381c1.676 0 3.048-1.371 3.048-3.048v-18.286c0-1.676-1.371-3.048-3.048-3.048zM28.19 9.905l-12.19 7.619-12.19-7.619v-3.048l12.19 7.619 12.19-7.619v3.048z"></path>
</symbol>
<symbol id="exit" viewBox="0 0 32 32">
<path fill="#bdbdbd" style="fill: var(--color3, #bdbdbd)" d="M20.051 23.237h2.499v4.997c0 2.067-1.681 3.748-3.748 3.748h-15.054c-2.066 0-3.748-1.681-3.748-3.748v-24.486c0-2.066 1.681-3.748 3.748-3.748h15.054c2.067 0 3.748 1.681 3.748 3.748v4.997h-2.499v-4.997c0-0.689-0.56-1.249-1.249-1.249h-15.054c-0.689 0-1.249 0.561-1.249 1.249v24.486c0 0.689 0.561 1.249 1.249 1.249h15.054c0.689 0 1.249-0.561 1.249-1.249v-4.997zM26.111 10.102l-1.767 1.767 2.873 2.874h-16.161v2.499h16.161l-2.873 2.873 1.767 1.767 5.889-5.889-5.889-5.89z"></path>
</symbol>
<symbol id="home" viewBox="0 0 32 32">
<path fill="#6e78e8" style="fill: var(--color1, #6e78e8)" d="M5.053 0c-2.791 0-5.053 2.262-5.053 5.053v21.895c0 2.79 2.262 5.053 5.053 5.053h21.895c2.79 0 5.053-2.262 5.053-5.053v-21.895c0-2.791-2.262-5.053-5.053-5.053h-21.895zM13.418 17.987v6.902h-5.754v-9.203h-3.453l11.509-10.353 11.509 10.353h-3.453v9.203h-5.754v-6.902h-4.604z"></path>
</symbol>
<symbol id="name" viewBox="0 0 32 32">
<path fill="#e0e0e0" style="fill: var(--color2, #e0e0e0)" d="M0.842 4.211v23.579c0 1.853 1.499 3.368 3.368 3.368h23.579c1.853 0 3.368-1.516 3.368-3.368v-23.579c0-1.853-1.516-3.368-3.368-3.368h-23.579c-1.869 0-3.368 1.516-3.368 3.368zM21.053 10.947c0 2.796-2.257 5.053-5.053 5.053s-5.053-2.257-5.053-5.053c0-2.796 2.257-5.053 5.053-5.053s5.053 2.257 5.053 5.053zM5.895 24.421c0-3.368 6.737-5.221 10.105-5.221s10.105 1.853 10.105 5.221v1.684h-20.211v-1.684z"></path>
</symbol>
<symbol id="password" viewBox="0 0 32 32">
<path fill="#e0e0e0" style="fill: var(--color2, #e0e0e0)" d="M25.143 10.667h-1.524v-3.048c0-4.206-3.413-7.619-7.619-7.619s-7.619 3.413-7.619 7.619v3.048h-1.524c-1.676 0-3.048 1.371-3.048 3.048v15.238c0 1.676 1.371 3.048 3.048 3.048h18.286c1.676 0 3.048-1.371 3.048-3.048v-15.238c0-1.676-1.371-3.048-3.048-3.048zM16 24.381c-1.676 0-3.048-1.371-3.048-3.048s1.371-3.048 3.048-3.048c1.676 0 3.048 1.371 3.048 3.048s-1.371 3.048-3.048 3.048zM20.724 10.667h-9.448v-3.048c0-2.606 2.118-4.724 4.724-4.724s4.724 2.118 4.724 4.724v3.048z"></path>
</symbol>
<symbol id="statistic" viewBox="0 0 32 32">
<path fill="#6e78e8" style="fill: var(--color1, #6e78e8)" d="M5.053 0h21.895c2.79 0 5.053 2.262 5.053 5.053v21.895c0 2.79-2.262 5.053-5.053 5.053h-21.895c-2.791 0-5.053-2.262-5.053-5.053v-21.895c0-2.791 2.262-5.053 5.053-5.053zM24.842 13.941c1.081 0 1.965-0.926 1.965-2.058s-0.884-2.059-1.965-2.059c-1.081 0-1.965 0.926-1.965 2.059 0 0.185 0.020 0.36 0.069 0.525l-3.488 3.664c-0.157-0.051-0.334-0.072-0.511-0.072s-0.354 0.021-0.511 0.072l-2.505-2.624c0.049-0.165 0.069-0.35 0.069-0.535 0-1.132-0.884-2.058-1.965-2.058s-1.965 0.926-1.965 2.058c0 0.185 0.020 0.371 0.069 0.535l-4.48 4.683c-0.157-0.051-0.324-0.072-0.501-0.072-1.081 0-1.965 0.926-1.965 2.059s0.884 2.058 1.965 2.058 1.965-0.926 1.965-2.058c0-0.185-0.020-0.36-0.069-0.525l4.47-4.693c0.157 0.051 0.334 0.072 0.511 0.072s0.354-0.021 0.511-0.072l2.505 2.625c-0.049 0.165-0.069 0.35-0.069 0.535 0 1.132 0.884 2.059 1.965 2.059s1.965-0.926 1.965-2.059c0-0.185-0.020-0.371-0.069-0.535l3.498-3.654c0.157 0.051 0.324 0.072 0.501 0.072z"></path>
</symbol>
<symbol id="wallet" viewBox="0 0 32 32">
<path fill="#24cca7" style="fill: var(--color4, #24cca7)" d="M3.755 7.619l16.211-4.537-0.859-1.779c-0.562-1.157-1.932-1.634-3.060-1.058l-14.513 7.375h2.219z"></path>
<path fill="#24cca7" style="fill: var(--color4, #24cca7)" d="M24.813 3.048c-0.195 0-0.391 0.029-0.586 0.087l-15.012 4.484h18.431l-0.693-2.779c-0.266-1.083-1.163-1.793-2.14-1.793z"></path>
<path fill="#4a56e2" style="fill: var(--color5, #4a56e2)" d="M28.36 8.573h-26.559c-0.568 0-1.074 0.26-1.405 0.67-0.151 0.189-0.266 0.406-0.331 0.645-0.040 0.15-0.065 0.307-0.065 0.467v19.862c0 0.984 0.805 1.783 1.797 1.783h26.559c0.992 0 1.797-0.799 1.797-1.783v-4.973h-10.662c-1.685 0-3.054-1.358-3.054-3.030v-3.964c0-0.82 0.331-1.565 0.866-2.111 0.474-0.485 1.11-0.813 1.822-0.895 0.119-0.014 0.241-0.021 0.363-0.021h10.666v-4.867c0.004-0.984-0.801-1.783-1.793-1.783z"></path>
<path fill="#4a56e2" style="fill: var(--color5, #4a56e2)" d="M31.414 16.926c-0.18-0.164-0.392-0.289-0.629-0.371-0.183-0.061-0.377-0.096-0.582-0.096h-10.712c-0.992 0-1.797 0.799-1.797 1.783v3.968c0 0.984 0.805 1.783 1.797 1.783h10.712c0.205 0 0.399-0.036 0.582-0.096 0.237-0.078 0.449-0.207 0.629-0.371 0.359-0.324 0.586-0.795 0.586-1.316v-3.968c0-0.52-0.226-0.991-0.586-1.316zM23.243 20.581c0 0.492-0.402 0.891-0.898 0.891h-0.596c-0.496 0-0.898-0.399-0.898-0.891v-0.592c0-0.285 0.133-0.538 0.345-0.699 0.155-0.118 0.345-0.193 0.553-0.193h0.596c0.496 0 0.898 0.399 0.898 0.891v0.592z"></path>
</symbol>
</defs>
</svg>

<svg aria-hidden="true" style="position:absolute;width:0;height:0;overflow:hidden" xmlns="http://www.w3.org/2000/svg"><defs><symbol id="currency" viewBox="0 0 32 32"><path fill="#6e78e8" style="fill:var(--color1, #6e78e8)" d="M5.053 0A5.053 5.053 0 0 0 0 5.053v21.895a5.053 5.053 0 0 0 5.053 5.053h21.895a5.053 5.053 0 0 0 5.053-5.053V5.053A5.053 5.053 0 0 0 26.948 0H5.053zm8.212 13.136c0 .995.765 1.635 3.144 2.253s4.925 1.635 4.925 4.61c0 2.148-1.624 3.332-3.667 3.72v2.253h-3.143v-2.274c-2.012-.43-3.73-1.718-3.856-4.013h2.305c.115 1.236.964 2.2 3.123 2.2 2.316 0 2.829-1.153 2.829-1.876 0-.974-.524-1.896-3.143-2.525-2.923-.702-4.925-1.907-4.925-4.327 0-2.022 1.635-3.342 3.667-3.783V7.111h3.143v2.295c2.19.534 3.29 2.19 3.363 3.992h-2.316c-.063-1.31-.754-2.2-2.619-2.2-1.771 0-2.829.796-2.829 1.938z"/></symbol><symbol id="email" viewBox="0 0 32 32"><path fill="#e0e0e0" style="fill:var(--color2, #e0e0e0)" d="M28.19 3.81H3.809A3.043 3.043 0 0 0 .777 6.858L.762 25.144a3.057 3.057 0 0 0 3.048 3.048h24.381a3.057 3.057 0 0 0 3.048-3.048V6.858a3.057 3.057 0 0 0-3.048-3.048zm0 6.095L16 17.524 3.81 9.905V6.857L16 14.476l12.19-7.619v3.048z"/></symbol><symbol id="exit" viewBox="0 0 32 32"><path fill="#bdbdbd" style="fill:var(--color3, #bdbdbd)" d="M20.051 23.237h2.499v4.997a3.752 3.752 0 0 1-3.748 3.748H3.748A3.752 3.752 0 0 1 0 28.234V3.748A3.752 3.752 0 0 1 3.748 0h15.054a3.752 3.752 0 0 1 3.748 3.748v4.997h-2.499V3.748a1.25 1.25 0 0 0-1.249-1.249H3.748a1.25 1.25 0 0 0-1.249 1.249v24.486a1.25 1.25 0 0 0 1.249 1.249h15.054a1.25 1.25 0 0 0 1.249-1.249v-4.997zm6.06-13.135-1.767 1.767 2.873 2.874H11.056v2.499h16.161l-2.873 2.873 1.767 1.767L32 15.993l-5.889-5.89z"/></symbol><symbol id="home" viewBox="0 0 32 32"><path fill="#6e78e8" style="fill:var(--color1, #6e78e8)" d="M5.053 0A5.053 5.053 0 0 0 0 5.053v21.895a5.053 5.053 0 0 0 5.053 5.053h21.895a5.053 5.053 0 0 0 5.053-5.053V5.053A5.053 5.053 0 0 0 26.948 0H5.053zm8.365 17.987v6.902H7.664v-9.203H4.211L15.72 5.333l11.509 10.353h-3.453v9.203h-5.754v-6.902h-4.604z"/></symbol><symbol id="name" viewBox="0 0 32 32"><path fill="#e0e0e0" style="fill:var(--color2, #e0e0e0)" d="M.842 4.211V27.79a3.367 3.367 0 0 0 3.368 3.368h23.579a3.378 3.378 0 0 0 3.368-3.368V4.211A3.378 3.378 0 0 0 27.789.843H4.21A3.367 3.367 0 0 0 .842 4.211zm20.211 6.736C21.053 13.743 18.796 16 16 16s-5.053-2.257-5.053-5.053S13.204 5.894 16 5.894s5.053 2.257 5.053 5.053zM5.895 24.421c0-3.368 6.737-5.221 10.105-5.221s10.105 1.853 10.105 5.221v1.684H5.894v-1.684z"/></symbol><symbol id="password" viewBox="0 0 32 32"><path fill="#e0e0e0" style="fill:var(--color2, #e0e0e0)" d="M25.143 10.667h-1.524V7.619C23.619 3.413 20.206 0 16 0S8.381 3.413 8.381 7.619v3.048H6.857a3.057 3.057 0 0 0-3.048 3.048v15.238a3.057 3.057 0 0 0 3.048 3.048h18.286a3.057 3.057 0 0 0 3.048-3.048V13.715a3.057 3.057 0 0 0-3.048-3.048zM16 24.381c-1.676 0-3.048-1.371-3.048-3.048s1.371-3.048 3.048-3.048c1.676 0 3.048 1.371 3.048 3.048S17.677 24.381 16 24.381zm4.724-13.714h-9.448V7.619c0-2.606 2.118-4.724 4.724-4.724s4.724 2.118 4.724 4.724v3.048z"/></symbol><symbol id="statistic" viewBox="0 0 32 32"><path fill="#6e78e8" style="fill:var(--color1, #6e78e8)" d="M5.053 0h21.895a5.053 5.053 0 0 1 5.053 5.053v21.895a5.053 5.053 0 0 1-5.053 5.053H5.053A5.053 5.053 0 0 1 0 26.948V5.053A5.053 5.053 0 0 1 5.053 0zm19.789 13.941c1.081 0 1.965-.926 1.965-2.058s-.884-2.059-1.965-2.059-1.965.926-1.965 2.059c0 .185.02.36.069.525l-3.488 3.664c-.157-.051-.334-.072-.511-.072s-.354.021-.511.072l-2.505-2.624c.049-.165.069-.35.069-.535 0-1.132-.884-2.058-1.965-2.058s-1.965.926-1.965 2.058c0 .185.02.371.069.535l-4.48 4.683a1.61 1.61 0 0 0-.501-.072c-1.081 0-1.965.926-1.965 2.059s.884 2.058 1.965 2.058 1.965-.926 1.965-2.058c0-.185-.02-.36-.069-.525l4.47-4.693c.157.051.334.072.511.072s.354-.021.511-.072l2.505 2.625c-.049.165-.069.35-.069.535 0 1.132.884 2.059 1.965 2.059s1.965-.926 1.965-2.059a1.9 1.9 0 0 0-.069-.535l3.498-3.654c.157.051.324.072.501.072z"/></symbol><symbol id="wallet" viewBox="0 0 32 32"><path fill="#24cca7" style="fill:var(--color4, #24cca7)" d="m3.755 7.619 16.211-4.537-.859-1.779C18.545.146 17.175-.331 16.047.245L1.534 7.62h2.219zM24.813 3.048a2.05 2.05 0 0 0-.586.087L9.215 7.619h18.431l-.693-2.779c-.266-1.083-1.163-1.793-2.14-1.793z"/><path fill="#4a56e2" style="fill:var(--color5, #4a56e2)" d="M28.36 8.573H1.801A1.799 1.799 0 0 0 0 10.355v19.862A1.79 1.79 0 0 0 1.797 32h26.559a1.79 1.79 0 0 0 1.797-1.783v-4.973H19.491c-1.685 0-3.054-1.358-3.054-3.03V18.25c0-.82.331-1.565.866-2.111a3.03 3.03 0 0 1 2.185-.916h10.666v-4.867a1.785 1.785 0 0 0-1.793-1.783z"/><path fill="#4a56e2" style="fill:var(--color5, #4a56e2)" d="M31.414 16.926a1.804 1.804 0 0 0-1.211-.467H19.491a1.79 1.79 0 0 0-1.797 1.783v3.968a1.79 1.79 0 0 0 1.797 1.783h10.712c.205 0 .399-.036.582-.096.237-.078.449-.207.629-.371.359-.324.586-.795.586-1.316v-3.968c0-.52-.226-.991-.586-1.316zm-8.171 3.655a.895.895 0 0 1-.898.891h-.596a.895.895 0 0 1-.898-.891v-.592c0-.285.133-.538.345-.699a.911.911 0 0 1 .553-.193h.596c.496 0 .898.399.898.891v.592z"/></symbol></defs></svg>
